X:1
T:Rest in the Arms of My Savior
T:Rest in the Arms of My Savior
T:John Wesley Dennis
T:John Wesley Dennis, 1904
T:Public Domain Courtesy of the Cyber Hymnal™
T:Public Domain Courtesy of the Cyber Hymnal™
C:John Wesley Dennis
Z:Public Domain
Z:Courtesy of the Cyber Hymnal™
%%score 1 ( 2 3 )
L:1/8
Q:1/4=98
M:4/4
K:Bb
V:1 treble 
V:2 bass 
V:3 bass 
V:1
 [DF] | [DF]2 [B,D]>[CE] [DF]2 [DF]>[DF] | [EG]2 [EB]>[EG] [DF]3 [DF] | %3
w: 1.~How|oft when I’m wea- ry and|sor- row op- pressed, I|
w: 2.~How|sweet it will be when we|meet on that strand, And|
w: 3.~The|way may be rough and the|jour- ney be long, The|
w: 4.~When|Je- sus doth call us, the|con- flict will cease. From|
 [DF]2 [FB]>[Fc] [Fd]2 [Ec]>[DB] | [=Ec]2 [Ec]>[Ed] [Fc]3 [_EF] | %5
w: long for the home where no|harm can mo- lest; O|
w: hear the glad songs of the|heav- en- ly land; O|
w: bat- tle be hard with temp-|ta- tion and wrong; But|
w: ev- er- y bur- den we’ll|find sweet re- lease; Our|
 [DF]2 [B,D]>[CE] [DF]2 [DF]>[DF] | [EG]2 [EB]>[EG] [GB]3 [EG] | [DF]2 [FB]>[Fc] [Fd]2 [DB]>[Fd] | %8
w: may we all meet in the|land of the blest, And|rest in the arms of the|
w: may we be found of the|pu- ri- fied band, And|rest in the arms of the|
w: when we have reached Heav- en’s|glo- ri- fied throng, We’ll|rest in the arms of the|
w: souls shall re- joice in e-|ter- ni- ty’s peace, And|rest in the arms of the|
 [Ec]4 [DB]3 z ||"^Refrain" [Fd]2 [Fd]>[Fd] [DB]2 [FB]>[Gc] | [Fd]4 [Fc]4 | %11
w: Sav- ior.|||
w: Sav- ior.|||
w: Sav- ior.|Rest in the arms of my|Sav- ior,|
w: Sav- ior.|||
 [Fc]2 [Fc]>[Fc] [=Ed]2 [Ec]>[EG] | [=EB]4 [FA]3 [_EF] | [DF]2 [B,D]>[CE] [DF]2 [DF]>[DF] | %14
w: |||
w: |||
w: Rest in the arms of my|Sav- ior; I|want to go there to those|
w: |||
 [EG]2 [EB]>[EG] [GB]3 [EG] | [DF]2 [FB]>[Fc] [Fd]2 [DB]>[Fd] | [Ec]4 [DB]4 |] %17
w: |||
w: |||
w: man- sions so fair, To|rest in the arms of my|Sav- ior.|
w: |||
V:2
 [B,,B,] | [B,,B,]2 [B,,F,]>[B,,F,] [B,,B,]2 [B,,B,]>[B,,B,] | %2
 [E,B,]2 [E,G,]>[E,B,] [B,,B,]3 [B,,B,] | [B,,B,]2 [D,B,]>[F,A,] B,2 [F,A,]>[G,B,] | %4
 [C,G,]2 [C,B,]>[C,B,] [F,A,]3 [F,A,] | [B,,B,]2 [B,,F,]>[B,,F,] [B,,B,]2 [B,,B,]>[B,,B,] | %6
 [E,B,]2 [E,G,]>[E,B,] [E,B,]3 [E,B,] | [B,,B,]2 [D,B,]>[F,A,] B,2 B,>B, | [F,A,]4 [B,,B,]3 z || %9
 [B,,B,]2 [B,,B,]>[B,,B,] [B,,F,]2 [D,B,]>[E,B,] | [F,B,]4 [F,A,]4 | %11
 [F,A,]2 [F,A,]>[F,A,] [C,B,]2 [C,G,]>[C,C] | [C,C]4 [F,C]3 [F,A,] | %13
 [B,,B,]2 [B,,F,]>[B,,F,] [B,,B,]2 [B,,B,]>[B,,B,] | [E,B,]2 [E,G,]>[E,B,] [E,B,]3 [E,B,] | %15
 [B,,B,]2 [D,B,]>[F,A,] B,2 B,>B, | [F,A,]4 [B,,B,]4 |] %17
V:3
 x | x8 | x8 | x4 B,2 x2 | x8 | x8 | x8 | x4 B,2 B,>B, | x8 || x8 | x8 | x8 | x8 | x8 | x8 | %15
 x4 B,2 B,>B, | x8 |] %17

